dist/svgs/geomicons-open/icons/list.svg

<svg xmlns="http://www.w3.org/2000/svg" viewBox="0 0 32 32"><path d="M3 8a3 3 0 006 0 3 3 0 00-6 0m9-2h16v4H12zM3 16a3 3 0 006 0 3 3 0 00-6 0m9-2h16v4H12zM3 24a3 3 0 006 0 3 3 0 00-6 0m9-2h16v4H12z"/></svg>

<svg id="list" xmlns="http://www.w3.org/2000/svg" viewBox="0 0 32 32" width="32" height="32" fill="currentcolor">
  <path d="M3 8 A3 3 0 0 0 9 8 A3 3 0 0 0 3 8 M12 6 L28 6 L28 10 L12 10z M3 16 A3 3 0 0 0 9 16 A3 3 0 0 0 3 16 M12 14 L28 14 L28 18 L12 18z M3 24 A3 3 0 0 0 9 24 A3 3 0 0 0 3 24 M12 22 L28 22 L28 26 L12 26z"></path>
</svg>
